!!!!SEGMENT: pl-kozmzk--mzk-m-346--030_walczynski-franciszek--cantantibus-organis-allegro-moderato.krn
!!!cenid: 18xx:2825
!!!COM: Walczyński, Franciszek
!!!COM-rismID: pe30021989
!!!CDT: ~1852-1937
!!!CNT: Polish
!!!GTL: Cantantibus organis op. 10
!!!OTL: 30. Allegro moderato
!!!PDT: 1898
!!!AGN: Secular
!!!SMS-siglum: PL-KOZmzk
!!!SMS-shelfmark: mzk/m/346
!!!SMS-shelfwork: 030 G
!!!SMS-variant:
!!!SMS-altvar:
!!!NIFC-rismSourceID: 1001109279
!!!NIFC-islandoraID: pl-kozmzk:7453
!!!URL-pdf-islandora: https://repozytorium.nifc.pl/islandora/object/pl-kozmzk%3A7453/datastream/PDF/view
!!!URL-scan: https://polish.musicsources.pl/pl/lokalizacje/galeria/druki-muzyczne/7581 @EN{Scan on Polish Music Herritage in Open Access Website} @PL{Skany w portalu Dziedzictwo Muzyki Polskiej w otwartym dostępie}
!!!ONB-nifc:
!!!AIN: 1 organ
!!!key:
**kern	**kern	**dynam
*part1	*part1	*part1
*staff2	*staff1	*
*Iorgan	*Iorgan	*
*I"Organo	*I"Organo	*
*clefF4	*clefG2	*
*k[f#c#g#d#]	*k[f#c#g#d#]	*
*c#:	*c#:	*
*M3/4	*M3/4	*
=1	=1	=1
*^	*^	*
!!LO:TX:a:B:t=Allegro moderato.
!	!	!	!	!LO:DY:b=2
2.rc	(4C#\	2.rdd	2.rg	f
.	8D#\L	.	.	.
.	8E\	.	.	.
.	8F#\	.	.	.
.	8G#\J	.	.	.
=2	=2	=2	=2	=2
2.r	2A\	2.rdd	2.rg	.
.	4G#\	.	.	.
=3	=3	=3	=3	=3
2.r	8F##X\L	2.rdd	2.rg	.
.	8D#\	.	.	.
!	!LO:TX:t=P:problem=przed # dodatkowo ♮	!	!	!
.	8F#X\	.	.	.
.	8E\	.	.	.
.	8D#\	.	.	.
.	8C#\J	.	.	.
=4	=4	=4	=4	=4
2.r	8BB#X\L	2.rdd	2.rg	.
.	8C#\	.	.	.
.	8C##X\	.	.	.
.	8D#\	.	.	.
.	8G#\	.	.	.
.	8F#\J)	.	.	.
*	*	*	*	*
=5	=5	=5	=5	=5
(4c#/	(4E\	2.rdd	2.rg	f
8d#/L	4D#\	.	.	.
8e/	.	.	.	.
8f#/	4C#\	.	.	.
8g#/J	.	.	.	.
=6	=6	=6	=6	=6
2a/	4BB#X\	2.rdd	2.rg	.
.	4D#\	.	.	.
4g#/	4E\	.	.	.
=7	=7	=7	=7	=7
8f##X/L	4.D#\	2.rdd	2.rg	.
8d#/	.	.	.	.
8f#X/	.	.	.	.
8e/	8E\	.	.	.
8d#/	8F#\L	.	.	.
8c#/J)	8F##X\J)	.	.	.
=8	=8	=8	=8	=8
(8B#X/L	(4G#\	2.rdd	2.rg	.
8c#/	.	.	.	.
8c##X/	4F#\	.	.	.
8d#/	.	.	.	.
8g#/	4BB#X\	.	.	.
8f#/J	.	.	.	.
=9	=9	=9	=9	=9
!!LO:LB:g=original
8e/L	8C#\L	2.rdd	2.rg	.
8d#/	8D#\J	.	.	.
8c#/	4E\	.	.	.
8dn/	.	.	.	.
8c#/	4E#X\)	.	.	.
8B/J)	.	.	.	.
=10	=10	=10	=10	=10
(4A/	[2.F#\	2.rff	(4f#\	f
4B/	.	.	8g#\L	.
.	.	.	8a\	.
4A/	.	.	8b\	.
.	.	.	8cc#\J	.
=11	=11	=11	=11	=11
4G#/	2.F#\]	2.r	2ddn\	.
4B/	.	.	.	.
4A/	.	.	4cc#\	.
=12	=12	=12	=12	=12
4G#/	(4F#\	2.r	8b#X\L	.
.	.	.	8g#\	.
[2c#/	8E#X\L	.	8bn\	.
.	8F#\	.	8a\	.
.	8G#\	.	8g#\	.
.	8A\J	.	8f#\J	.
=13	=13	=13	=13	=13
(2.c#/])	4B\	2.rff	8e#X\L	.
.	.	.	8f#\	.
.	4E\	.	8f##X\	.
.	.	.	8g#\	.
.	4E#X\	.	8cc#\	.
.	.	.	8b\J	.
=14	=14	=14	=14	=14
8c#/L	2F#\	2.r	8a\L	.
8B/J	.	.	8g#\	.
4A/	.	.	8f#\	.
.	.	.	8e\	.
4A#X/	4F##X\	.	8d#\	.
.	.	.	8c#\J	.
=15	=15	=15	=15	=15
2.B#X/)	8G#\L	2.r	2.d#\)	.
.	8F##X\	.	.	.
.	8G#\	.	.	.
.	8A\	.	.	.
.	8G#\	.	.	.
.	8F#X\J)	.	.	.
=16	=16	=16	=16	=16
!	!LO:TX:i:b=2:t=Ped.	!	!	!LO:DY:a
(2.G#/	(2.E\	(4cc#/	([2.c#\	f
.	.	8dd#/L	.	.
.	.	8ee/	.	.
.	.	8ff#/	.	.
.	.	8gg#/J	.	.
=17	=17	=17	=17	=17
2A/	2F#\	2aa/	4c#\]	.
.	.	.	4BnX\	.
4G#/)	4E\)	4gg#/)	4c#\)	.
=18	=18	=18	=18	=18
!!LO:PB:g=original
(4A/	(4D#\	(8ff##X/L	(4c#\	.
.	.	8dd#/	.	.
[4G#/	8D#\L	8ff#X/	8B#X\L	.
.	8C#\	8ee/	8c#\J	.
8G#/L]	8BB\	8dd#/	[4d#\	.
8F##X/J	8AA\J	8cc#/J	.	.
=19	=19	=19	=19	=19
2.G#/)	4GG#\	8b#X/L	2.d#\])	.
.	.	8cc#/	.	.
!	!LO:TX:t=P:problem=przed # dodatkowo ♮	!	!	!
.	4F#X\	8cc##X/	.	.
.	.	8dd#/	.	.
.	4BB#X\)	8gg#/	.	.
.	.	8ff#/J	.	.
=20	=20	=20	=20	=20
(8c#/L	(8C#\L	8ee/L	2.g#\	.
8B#X/J	8D#\J	8dd#/	.	.
[2c#/	4E\	8cc#/	.	.
.	.	8ddn/	.	.
.	4E#X\	8cc#/	.	.
.	.	8b/J	.	.
=21	=21	=21	=21	=21
8c#/L]	8F#\L	8a/L	8f#\L	.
8Bn/J	8G#\J	8g#/	8e#X\J	.
2c#/	2A\	8f#/	2f#\	.
.	.	8ee/	.	.
.	.	8dd#X/	.	.
.	.	8cc#/J	.	.
=22	=22	=22	=22	=22
4e/	2G#\	2cc#/	4g#\	.
2d#/)	.	.	2f#\	.
.	4GG#\)	4b#X/)	.	.
=23	=23	=23	=23	=23
!	!	!	!	!LO:TX:t=P:problem=drugie ff u dołu systemu
(2.e/	(4C#\	(2.cc#/	(2.g#\	ff
.	8D#\L	.	.	.
.	8E\	.	.	.
.	8F#\	.	.	.
.	8G#\J	.	.	.
=24	=24	=24	=24	=24
(2.d#/)	2A\	2cc#/	2.f#\	<
.	4G#\	4b#X/	.	.
=25	=25	=25	=25	=25
!LO:TX:b:i:t=rit.	!	!	!	!
2.ryy	4C#\	[2.cc#/	4e\ 4g#	.
.	4FF#\	.	2f#\ 2a	.
.	4DD#\	.	.	[
=26	=26	=26	=26	=26
2.ryy	2.CC#;\)	2.cc#/])	2.e\)) 2.g#	>]
*v	*v	*	*	*
*	*v	*v	*
==	==	==
*-	*-	*-
!!!system-decoration: {(s1,s2)}
!!!ENC: Kamil Watkowski
!!!END: 2021-08-09
